packages/design-system/site/assets/images/layout/img-master-detail-2.svg

<?xml version="1.0" encoding="UTF-8" standalone="no"?>
<svg width="241px" height="231px" viewBox="0 0 241 231" version="1.1" xmlns="http://www.w3.org/2000/svg" xmlns:xlink="http://www.w3.org/1999/xlink" xmlns:sketch="http://www.bohemiancoding.com/sketch/ns">
    <!-- Generator: Sketch 3.3.3 (12081) - http://www.bohemiancoding.com/sketch -->
    <title>record copy 6</title>
    <desc>Created with Sketch.</desc>
    <defs></defs>
    <g id="Page-1" stroke="none" stroke-width="1" fill="none" fill-rule="evenodd" sketch:type="MSPage">
        <g id="layouts" sketch:type="MSArtboardGroup" transform="translate(-838.000000, -3603.000000)">
            <g id="record-copy-6" sketch:type="MSLayerGroup" transform="translate(838.000000, 3603.000000)">
                <rect id="bkgd" stroke="#E1E6EF" fill="#FFFFFF" sketch:type="MSShapeGroup" x="0" y="9.77379984" width="241" height="220.490531"></rect>
                <g id="Group-Copy-22" transform="translate(18.000000, 47.000000)" fill="#E1E6EF" sketch:type="MSShapeGroup">
                    <rect id="Rectangle-232-Copy-14" x="0.107970027" y="0.981948229" width="39.89203" height="1.08106267" rx="4"></rect>
                    <rect id="Rectangle-232-Copy-18" x="0.107970027" y="14.9819482" width="36.89203" height="1.08106267" rx="4"></rect>
                    <rect id="Rectangle-232-Copy-19" x="0.107970027" y="28.9819482" width="50.89203" height="1.08106267" rx="4"></rect>
                    <rect id="Rectangle-232-Copy-20" x="0.107970027" y="42.9819482" width="38.89203" height="1.08106267" rx="4"></rect>
                    <rect id="Rectangle-232-Copy-21" x="0.107970027" y="56.9819482" width="47.89203" height="1.08106267" rx="4"></rect>
                    <rect id="Rectangle-232-Copy-22" x="0.107970027" y="70.9819482" width="51.89203" height="1.08106267" rx="4"></rect>
                    <rect id="Rectangle-232-Copy-23" x="0.107970027" y="84.9819482" width="42.89203" height="1.08106267" rx="4"></rect>
                    <rect id="Rectangle-232-Copy-24" x="0.107970027" y="98.9819482" width="41.89203" height="1.08106267" rx="4"></rect>
                </g>
                <rect id="Rectangle-553" stroke="#E0E5EE" fill="#F7F9FB" sketch:type="MSShapeGroup" x="10.3180428" y="10.2993631" width="230.681957" height="25.7006369"></rect>
                <g id="Component---Top-Bar-Copy-12" sketch:type="MSShapeGroup">
                    <rect id="Background" stroke="#E1E6EF" fill="#FFFFFF" x="0" y="0" width="241" height="11.0895037"></rect>
                    <path d="M17.4249624,3.2540634 C17.724487,2.94258665 18.1414386,2.74932182 18.6026298,2.74932182 C19.2156048,2.74932182 19.7505047,3.0905399 20.0352587,3.59716498 C20.2828709,3.48673819 20.5568077,3.42528234 20.8450477,3.42528234 C21.9507134,3.42528234 22.8470948,4.32794426 22.8470948,5.44146827 C22.8470948,6.55501022 21.9507134,7.45765421 20.8450477,7.45765421 C20.7100469,7.45765421 20.5781727,7.4441289 20.4506471,7.41844157 C20.1998903,7.86499204 19.7218262,8.16672842 19.1732879,8.16672842 C18.9436806,8.16672842 18.7264359,8.11382903 18.5330001,8.01961825 C18.2787933,8.61670505 17.6863029,9.03534387 16.9959896,9.03534387 C16.2769618,9.03534387 15.6641306,8.58122354 15.4290247,7.94427834 C15.3261884,7.96596547 15.2196505,7.97739202 15.1104172,7.97739202 C14.2543582,7.97739202 13.5604151,7.27741242 13.5604151,6.41392725 C13.5604151,5.83522698 13.8721405,5.32998313 14.335488,5.05963839 C14.2400729,4.84047097 14.1871183,4.59870158 14.1871183,4.34453698 C14.1871183,3.35141334 14.9946432,2.54633455 15.9908062,2.54633455 C16.5756597,2.54633455 17.0953938,2.82390834 17.4249624,3.2540634" id="Fill-1-Copy" fill="#1AA2DD"></path>
                </g>
                <g id="Component---Left-Bar---Expanded-Copy-16" transform="translate(0.000000, 0.187958)" fill="#16325C" sketch:type="MSShapeGroup">
                    <rect id="BG" x="0" y="0" width="10.7320313" height="229.994584"></rect>
                </g>
                <path d="M83.9831805,35.4940824 L83.9831804,229.896503" id="Line-Copy-2" stroke="#E1E6EF" stroke-linecap="square" sketch:type="MSShapeGroup"></path>
                <path d="M84.3504104,48.5 L240.024372,48.5" id="Line" stroke="#E1E6EF" stroke-linecap="square" sketch:type="MSShapeGroup"></path>
                <rect id="Rectangle-232-Copy-27" fill="#E1E6EF" sketch:type="MSShapeGroup" x="91.10797" y="40.9819482" width="57.2250744" height="1.08106267" rx="4"></rect>
                <rect id="Rectangle-232-Copy-25" fill="#E1E6EF" sketch:type="MSShapeGroup" x="91.10797" y="54.9819482" width="57.2250744" height="1.08106267" rx="4"></rect>
                <rect id="Rectangle-232-Copy-26" fill="#E1E6EF" sketch:type="MSShapeGroup" x="91.10797" y="68.9819482" width="57.2250744" height="1.08106267" rx="4"></rect>
                <rect id="Rectangle-232-Copy-30" fill="#E1E6EF" sketch:type="MSShapeGroup" x="91.10797" y="82.9819482" width="57.2250744" height="1.08106267" rx="4"></rect>
                <rect id="Rectangle-232-Copy-28" fill="#E1E6EF" sketch:type="MSShapeGroup" x="91.10797" y="96.9819482" width="57.2250744" height="1.08106267" rx="4"></rect>
                <rect id="Rectangle-232-Copy-29" fill="#E1E6EF" sketch:type="MSShapeGroup" x="91.10797" y="110.981948" width="57.2250744" height="1.08106267" rx="4"></rect>
                <rect id="Rectangle-232-Copy-36" fill="#E1E6EF" sketch:type="MSShapeGroup" x="157.675781" y="40.9819482" width="24.9580078" height="1.08106267" rx="4"></rect>
                <rect id="Rectangle-232-Copy-31" fill="#E1E6EF" sketch:type="MSShapeGroup" x="157.675781" y="54.9819482" width="24.9580078" height="1.08106267" rx="4"></rect>
                <rect id="Rectangle-232-Copy-32" fill="#E1E6EF" sketch:type="MSShapeGroup" x="157.675781" y="68.9819482" width="24.9580078" height="1.08106267" rx="4"></rect>
                <rect id="Rectangle-232-Copy-33" fill="#E1E6EF" sketch:type="MSShapeGroup" x="157.675781" y="82.9819482" width="24.9580078" height="1.08106267" rx="4"></rect>
                <rect id="Rectangle-232-Copy-34" fill="#E1E6EF" sketch:type="MSShapeGroup" x="157.675781" y="96.9819482" width="24.9580078" height="1.08106267" rx="4"></rect>
                <rect id="Rectangle-232-Copy-35" fill="#E1E6EF" sketch:type="MSShapeGroup" x="157.675781" y="110.981948" width="24.9580078" height="1.08106267" rx="4"></rect>
                <path d="M84.3504104,62.5 L240.024372,62.5" id="Line-Copy-19" stroke="#E1E6EF" stroke-linecap="square" sketch:type="MSShapeGroup"></path>
                <path d="M84.3504104,76.5 L240.024372,76.5" id="Line-Copy-20" stroke="#E1E6EF" stroke-linecap="square" sketch:type="MSShapeGroup"></path>
                <path d="M84.3504104,90.5 L240.024372,90.5" id="Line-Copy-21" stroke="#E1E6EF" stroke-linecap="square" sketch:type="MSShapeGroup"></path>
                <path d="M84.3504104,104.5 L240.024372,104.5" id="Line-Copy-22" stroke="#E1E6EF" stroke-linecap="square" sketch:type="MSShapeGroup"></path>
                <path d="M84.3504104,118.5 L240.024372,118.5" id="Line-Copy-23" stroke="#E1E6EF" stroke-linecap="square" sketch:type="MSShapeGroup"></path>
            </g>
        </g>
    </g>
</svg>

<svg width="241" height="231" xmlns="http://www.w3.org/2000/svg"><g fill="none" fill-rule="evenodd"><path stroke="#E1E6EF" fill="#FFF" d="M0 9.774h241v220.49H0z"/><g transform="translate(18 47)" fill="#E1E6EF"><rect x=".108" y=".982" width="39.892" height="1.081" rx="4"/><rect x=".108" y="14.982" width="36.892" height="1.081" rx="4"/><rect x=".108" y="28.982" width="50.892" height="1.081" rx="4"/><rect x=".108" y="42.982" width="38.892" height="1.081" rx="4"/><rect x=".108" y="56.982" width="47.892" height="1.081" rx="4"/><rect x=".108" y="70.982" width="51.892" height="1.081" rx="4"/><rect x=".108" y="84.982" width="42.892" height="1.081" rx="4"/><rect x=".108" y="98.982" width="41.892" height="1.081" rx="4"/></g><path stroke="#E0E5EE" fill="#F7F9FB" d="M10.318 10.3H241V36H10.318z"/><path stroke="#E1E6EF" fill="#FFF" d="M0 0h241v11.09H0z"/><path d="M17.425 3.254c.3-.31.716-.505 1.178-.505.613 0 1.148.34 1.432.846.248-.11.522-.172.81-.172 1.106 0 2.002.903 2.002 2.016 0 1.115-.896 2.018-2.002 2.018-.135 0-.267-.014-.394-.04-.25.447-.727.75-1.276.75-.23 0-.447-.054-.64-.148-.254.597-.847 1.015-1.537 1.015-.72 0-1.332-.454-1.567-1.09-.104.02-.21.032-.32.032-.856 0-1.55-.7-1.55-1.563 0-.58.312-1.084.775-1.354-.095-.22-.148-.46-.148-.715 0-.994.808-1.8 1.804-1.8.587 0 1.106.28 1.436.71" fill="#1AA2DD"/><path d="M0 .188h10.732v229.995H0z" fill="#16325C"/><path d="M83.983 35.494v194.403M84.35 48.5h155.674" stroke="#E1E6EF" stroke-linecap="square"/><rect fill="#E1E6EF" x="91.108" y="40.982" width="57.225" height="1.081" rx="4"/><rect fill="#E1E6EF" x="91.108" y="54.982" width="57.225" height="1.081" rx="4"/><rect fill="#E1E6EF" x="91.108" y="68.982" width="57.225" height="1.081" rx="4"/><rect fill="#E1E6EF" x="91.108" y="82.982" width="57.225" height="1.081" rx="4"/><rect fill="#E1E6EF" x="91.108" y="96.982" width="57.225" height="1.081" rx="4"/><rect fill="#E1E6EF" x="91.108" y="110.982" width="57.225" height="1.081" rx="4"/><rect fill="#E1E6EF" x="157.676" y="40.982" width="24.958" height="1.081" rx="4"/><rect fill="#E1E6EF" x="157.676" y="54.982" width="24.958" height="1.081" rx="4"/><rect fill="#E1E6EF" x="157.676" y="68.982" width="24.958" height="1.081" rx="4"/><rect fill="#E1E6EF" x="157.676" y="82.982" width="24.958" height="1.081" rx="4"/><rect fill="#E1E6EF" x="157.676" y="96.982" width="24.958" height="1.081" rx="4"/><rect fill="#E1E6EF" x="157.676" y="110.982" width="24.958" height="1.081" rx="4"/><path d="M84.35 62.5h155.674M84.35 76.5h155.674M84.35 90.5h155.674m-155.674 14h155.674m-155.674 14h155.674" stroke="#E1E6EF" stroke-linecap="square"/></g></svg>
